X:1
T:17. ROUND DANCE
T:17. ROUND DANCE
T:For Children, Sz.42 
T:Book 2 (after Hungarian Folksongs)
T:Béla Bartók
%%score { ( 1 3 ) | ( 2 4 ) }
L:1/8
Q:1/4=70
M:4/4
K:G
V:1 treble nm="Piano" snm="Pno."
V:3 treble 
V:2 bass 
V:4 bass 
V:1
!p!"^Lento," (E2!<(! B)B (B2 A2)!<)! |!>(! (B2 G)G (F2!>)! E2) |!<(! (E2 B)B (B2 A2)!<)! | %3
!>(! (B2 G)G (F2 E2)!>)! |!<(! (EFG)G (AGFG)!<)! | %5
!>(! !tenuto!F2 !tenuto!F2 !tenuto!F2 !tenuto!F2!>)! |!<(! (EFG)G (AGFG)!<)! | %7
 !tenuto!E2 !tenuto!E2 !tenuto!E2 !tenuto!E2 | z4!pp! !tenuto!E2 !tenuto!G2 | E8 | %10
!p!!<(! (.E2 B)B (B2 A2)!<)! |!>(! (B2 GG) (F2 E2)!>)! | (E2 B)B (B2 A2) | %13
!>(! (B2 G)G (F2 E2)!>)! |!<(! (EFG)G (AGFG)!<)! | %15
!>(! !tenuto!F2 !tenuto!F2 !tenuto!F2 !tenuto!F2!>)! |!<(! (EFG)G (AGFG)!<)! | %17
!>(! !tenuto!E2 !tenuto!E2 !tenuto!E2 !tenuto!E2!>)! |] %18
V:2
 ([E,,B,,]4 [E,F,C]4) | ([E,,B,,]4 [E,G,C]4) | ([E,,B,,]4 [E,F,C]4) | ([E,,B,,]4 [C,E,A,]4) | %4
 ([E,,B,,]4 [E,_A,C]4) | ([E,,B,,]4 [E,A,^C]4) | ([E,,B,,]4 [E,F,=C]4) | z4 z2!mf! !tenuto!^A,,2 | %8
!>(! !tenuto!^A,,2 !tenuto!A,,2!>)! !tenuto!A,,4- | A,,2 z2 z4 | ([E,,B,,]4 [E,F,C]4) | z4 G,4 | %12
!<(! (G,4 F,4)!<)! | (D,2 E,2 A,2 G,2) | z2 E6- | E2 (^A,2 ^D2) =A,2 | z2 (E,2 =F,2) A,2 | %17
 E,,2 !tenuto!D,2 !tenuto!C,2 !tenuto!B,,2 |] %18
V:3
 x8 | x8 | x8 | x8 | x8 | x8 | x8 | x8 | x4 !tenuto!^D2 !tenuto!D2 | ^D6 ^C2 | x8 | z4 B,4 | x8 | %13
 z4 C4 | x8 | x8 | x8 | x2 D2 C2 B,2 |] %18
V:4
 x8 | x8 | x8 | x8 | x8 | x8 | x8 | x8 | x8 | x8 | x8 | (B,,2 ^C,2 ^D,2 E,2) | [=D,C]8 | z4 C,4 | %14
 x2 (C4 B,2) | ^A,2 (F,2 B,2) [B,,^D,]2 | x2 (C,B,, A,,2) [B,,^D,]2 | x2 E,,2 E,,2 E,,2 |] %18

